; --------------------
;     gcode header    
; --------------------
G90 ; set absolute coordinates 
M82 ; set absolute extruder moves 
M106 S0 ; turn off part cooling fan 
M190 S80 ; set and wait for bed temp 
G28 U Y X Z ; home all axes 
G10 P0 S240 ; set extruder temp 
M109 S240 ; wait for extruder temp 
T0 ; select tool 
M703 ; load filament configs 
M572 D0 S0.0 

; --------------------
;    gcode generated  
;      model base     
; --------------------

; -> layer nr=1
G92 E0
G1 Z0.35 F6000
G1 X100.0 Y150.0 F12000
G1 X200.0 Y150.0 E8.7308 F900
G1 X200.4 Y149.6 E8.7802 F900
G1 X200.4 Y150.4 E8.85 F900
G1 X99.6 Y150.4 E17.6507 F900
G1 X99.6 Y149.6 E17.7205 F900
G1 X200.8 Y149.2 E26.5561 F900
G1 X200.8 Y150.8 E26.6958 F900
G1 X99.2 Y150.8 E35.5663 F900
G1 X99.2 Y149.2 E35.706 F900
G1 X201.2 Y148.8 E44.6115 F900
G1 X201.2 Y151.2 E44.821 F900
G1 X98.8 Y151.2 E53.7613 F900
G1 X98.8 Y148.8 E53.9709 F900
G1 X201.6 Y148.4 E62.9462 F900
G1 X201.6 Y151.6 E63.2256 F900
G1 X98.4 Y151.6 E72.2357 F900
G1 X98.4 Y148.4 E72.5151 F900
G1 X202.0 Y148.0 E81.5603 F900
G1 X202.0 Y152.0 E81.9095 F900
G1 X98.0 Y152.0 E90.9895 F900
G1 X98.0 Y148.0 E91.3388 F900
G1 X202.4 Y147.6 E100.4538 F900
G1 X202.4 Y152.4 E100.8728 F900
G1 X97.6 Y152.4 E110.0227 F900
G1 X97.6 Y147.6 E110.4418 F900
G1 X202.8 Y147.2 E119.6266 F900
G1 X202.8 Y152.8 E120.1156 F900
G1 X97.2 Y152.8 E129.3353 F900
G1 X97.2 Y147.2 E129.8242 F900
G1 X203.2 Y146.8 E139.0789 F900
G1 X203.2 Y153.2 E139.6377 F900
G1 X96.8 Y153.2 E148.9272 F900
G1 X96.8 Y146.8 E149.486 F900
G1 X203.6 Y146.4 E158.8105 F900
G1 X203.6 Y153.6 E159.4391 F900
G1 X96.4 Y153.6 E168.7985 F900
G1 X96.4 Y146.4 E169.4272 F900

; -> layer nr=2
G92 E0
G1 Z0.65 F6000
G1 X100.0 Y150.0 F12000
G1 X200.0 Y150.0 E4.989 F900
G1 X200.4 Y149.6 E5.0172 F900
G1 X200.4 Y150.4 E5.0572 F900
G1 X99.6 Y150.4 E10.0861 F900
G1 X99.6 Y149.6 E10.126 F900
G1 X200.8 Y149.2 E15.1749 F900
G1 X200.8 Y150.8 E15.2548 F900
G1 X99.2 Y150.8 E20.3236 F900
G1 X99.2 Y149.2 E20.4034 F900
G1 X201.2 Y148.8 E25.4923 F900
G1 X201.2 Y151.2 E25.612 F900
G1 X98.8 Y151.2 E30.7208 F900
G1 X98.8 Y148.8 E30.8405 F900
G1 X201.6 Y148.4 E35.9692 F900
G1 X201.6 Y151.6 E36.1289 F900
G1 X98.4 Y151.6 E41.2776 F900
G1 X98.4 Y148.4 E41.4372 F900
G1 X202.0 Y148.0 E46.6059 F900
G1 X202.0 Y152.0 E46.8054 F900
G1 X98.0 Y152.0 E51.994 F900
G1 X98.0 Y148.0 E52.1936 F900
G1 X202.4 Y147.6 E57.4021 F900
G1 X202.4 Y152.4 E57.6416 F900
G1 X97.6 Y152.4 E62.8701 F900
G1 X97.6 Y147.6 E63.1096 F900
G1 X202.8 Y147.2 E68.3581 F900
G1 X202.8 Y152.8 E68.6375 F900
G1 X97.2 Y152.8 E73.9059 F900
G1 X97.2 Y147.2 E74.1853 F900
G1 X203.2 Y146.8 E79.4737 F900
G1 X203.2 Y153.2 E79.7929 F900
G1 X96.8 Y153.2 E85.1013 F900
G1 X96.8 Y146.8 E85.4206 F900
G1 X203.6 Y146.4 E90.7489 F900
G1 X203.6 Y153.6 E91.1081 F900
G1 X96.4 Y153.6 E96.4563 F900
G1 X96.4 Y146.4 E96.8155 F900

; -> layer nr=3
G92 E0
G1 Z0.95 F6000
G1 X100.0 Y150.0 F12000
G1 X200.0 Y150.0 E4.989 F900
G1 X200.4 Y149.6 E5.0172 F900
G1 X200.4 Y150.4 E5.0572 F900
G1 X99.6 Y150.4 E10.0861 F900
G1 X99.6 Y149.6 E10.126 F900
G1 X200.8 Y149.2 E15.1749 F900
G1 X200.8 Y150.8 E15.2548 F900
G1 X99.2 Y150.8 E20.3236 F900
G1 X99.2 Y149.2 E20.4034 F900
G1 X201.2 Y148.8 E25.4923 F900
G1 X201.2 Y151.2 E25.612 F900
G1 X98.8 Y151.2 E30.7208 F900
G1 X98.8 Y148.8 E30.8405 F900
G1 X201.6 Y148.4 E35.9692 F900
G1 X201.6 Y151.6 E36.1289 F900
G1 X98.4 Y151.6 E41.2776 F900
G1 X98.4 Y148.4 E41.4372 F900
G1 X202.0 Y148.0 E46.6059 F900
G1 X202.0 Y152.0 E46.8054 F900
G1 X98.0 Y152.0 E51.994 F900
G1 X98.0 Y148.0 E52.1936 F900
G1 X202.4 Y147.6 E57.4021 F900
G1 X202.4 Y152.4 E57.6416 F900
G1 X97.6 Y152.4 E62.8701 F900
G1 X97.6 Y147.6 E63.1096 F900
G1 X202.8 Y147.2 E68.3581 F900
G1 X202.8 Y152.8 E68.6375 F900
G1 X97.2 Y152.8 E73.9059 F900
G1 X97.2 Y147.2 E74.1853 F900
G1 X203.2 Y146.8 E79.4737 F900
G1 X203.2 Y153.2 E79.7929 F900
G1 X96.8 Y153.2 E85.1013 F900
G1 X96.8 Y146.8 E85.4206 F900
G1 X203.6 Y146.4 E90.7489 F900
G1 X203.6 Y153.6 E91.1081 F900
G1 X96.4 Y153.6 E96.4563 F900
G1 X96.4 Y146.4 E96.8155 F900

; --------------------
;    gcode generated  
;       model top     
; --------------------

; -> layer nr=4
G92 E0
G1 Z1.25 F6000
M572 D0 S0.0
G1 X200.0 Y150.2 E5.1721 F900
G1 X175.0 Y150.2 E6.4194 F3600
G1 X150.0 Y150.2 E7.6666 F900
G1 X125.0 Y150.2 E8.9139 F3600
G1 X100.0 Y150.2 E10.1611 F900
G1 X100.0 Y149.8 E10.1811 F900
G1 X125.0 Y149.8 E11.4283 F3600
G1 X150.0 Y149.8 E12.6756 F900
G1 X175.0 Y149.8 E13.9228 F3600
G1 X200.0 Y149.8 E15.1701 F900

; -> layer nr=5
G92 E0
G1 Z1.55 F6000
M572 D0 S0.0061
G1 X200.0 Y150.2 E0.02 F900
G1 X175.0 Y150.2 E1.2672 F3600
G1 X150.0 Y150.2 E2.5145 F900
G1 X125.0 Y150.2 E3.7617 F3600
G1 X100.0 Y150.2 E5.009 F900
G1 X100.0 Y149.8 E5.0289 F900
G1 X125.0 Y149.8 E6.2762 F3600
G1 X150.0 Y149.8 E7.5234 F900
G1 X175.0 Y149.8 E8.7707 F3600
G1 X200.0 Y149.8 E10.018 F900

; -> layer nr=6
G92 E0
G1 Z1.85 F6000
M572 D0 S0.0122
G1 X200.0 Y150.2 E0.02 F900
G1 X175.0 Y150.2 E1.2672 F3600
G1 X150.0 Y150.2 E2.5145 F900
G1 X125.0 Y150.2 E3.7617 F3600
G1 X100.0 Y150.2 E5.009 F900
G1 X100.0 Y149.8 E5.0289 F900
G1 X125.0 Y149.8 E6.2762 F3600
G1 X150.0 Y149.8 E7.5234 F900
G1 X175.0 Y149.8 E8.7707 F3600
G1 X200.0 Y149.8 E10.018 F900

; -> layer nr=7
G92 E0
G1 Z2.15 F6000
M572 D0 S0.0184
G1 X200.0 Y150.2 E0.02 F900
G1 X175.0 Y150.2 E1.2672 F3600
G1 X150.0 Y150.2 E2.5145 F900
G1 X125.0 Y150.2 E3.7617 F3600
G1 X100.0 Y150.2 E5.009 F900
G1 X100.0 Y149.8 E5.0289 F900
G1 X125.0 Y149.8 E6.2762 F3600
G1 X150.0 Y149.8 E7.5234 F900
G1 X175.0 Y149.8 E8.7707 F3600
G1 X200.0 Y149.8 E10.018 F900

; -> layer nr=8
G92 E0
G1 Z2.45 F6000
M572 D0 S0.0245
G1 X200.0 Y150.2 E0.02 F900
G1 X175.0 Y150.2 E1.2672 F3600
G1 X150.0 Y150.2 E2.5145 F900
G1 X125.0 Y150.2 E3.7617 F3600
G1 X100.0 Y150.2 E5.009 F900
G1 X100.0 Y149.8 E5.0289 F900
G1 X125.0 Y149.8 E6.2762 F3600
G1 X150.0 Y149.8 E7.5234 F900
G1 X175.0 Y149.8 E8.7707 F3600
G1 X200.0 Y149.8 E10.018 F900

; -> layer nr=9
G92 E0
G1 Z2.75 F6000
M572 D0 S0.0306
G1 X200.0 Y150.2 E0.02 F900
G1 X175.0 Y150.2 E1.2672 F3600
G1 X150.0 Y150.2 E2.5145 F900
G1 X125.0 Y150.2 E3.7617 F3600
G1 X100.0 Y150.2 E5.009 F900
G1 X100.0 Y149.8 E5.0289 F900
G1 X125.0 Y149.8 E6.2762 F3600
G1 X150.0 Y149.8 E7.5234 F900
G1 X175.0 Y149.8 E8.7707 F3600
G1 X200.0 Y149.8 E10.018 F900

; -> layer nr=10
G92 E0
G1 Z3.05 F6000
M572 D0 S0.0367
G1 X200.0 Y150.2 E0.02 F900
G1 X175.0 Y150.2 E1.2672 F3600
G1 X150.0 Y150.2 E2.5145 F900
G1 X125.0 Y150.2 E3.7617 F3600
G1 X100.0 Y150.2 E5.009 F900
G1 X100.0 Y149.8 E5.0289 F900
G1 X125.0 Y149.8 E6.2762 F3600
G1 X150.0 Y149.8 E7.5234 F900
G1 X175.0 Y149.8 E8.7707 F3600
G1 X200.0 Y149.8 E10.018 F900

; -> layer nr=11
G92 E0
G1 Z3.35 F6000
M572 D0 S0.0429
G1 X200.0 Y150.2 E0.02 F900
G1 X175.0 Y150.2 E1.2672 F3600
G1 X150.0 Y150.2 E2.5145 F900
G1 X125.0 Y150.2 E3.7617 F3600
G1 X100.0 Y150.2 E5.009 F900
G1 X100.0 Y149.8 E5.0289 F900
G1 X125.0 Y149.8 E6.2762 F3600
G1 X150.0 Y149.8 E7.5234 F900
G1 X175.0 Y149.8 E8.7707 F3600
G1 X200.0 Y149.8 E10.018 F900

; -> layer nr=12
G92 E0
G1 Z3.65 F6000
M572 D0 S0.049
G1 X200.0 Y150.2 E0.02 F900
G1 X175.0 Y150.2 E1.2672 F3600
G1 X150.0 Y150.2 E2.5145 F900
G1 X125.0 Y150.2 E3.7617 F3600
G1 X100.0 Y150.2 E5.009 F900
G1 X100.0 Y149.8 E5.0289 F900
G1 X125.0 Y149.8 E6.2762 F3600
G1 X150.0 Y149.8 E7.5234 F900
G1 X175.0 Y149.8 E8.7707 F3600
G1 X200.0 Y149.8 E10.018 F900

; -> layer nr=13
G92 E0
G1 Z3.95 F6000
M572 D0 S0.0551
G1 X200.0 Y150.2 E0.02 F900
G1 X175.0 Y150.2 E1.2672 F3600
G1 X150.0 Y150.2 E2.5145 F900
G1 X125.0 Y150.2 E3.7617 F3600
G1 X100.0 Y150.2 E5.009 F900
G1 X100.0 Y149.8 E5.0289 F900
G1 X125.0 Y149.8 E6.2762 F3600
G1 X150.0 Y149.8 E7.5234 F900
G1 X175.0 Y149.8 E8.7707 F3600
G1 X200.0 Y149.8 E10.018 F900

; -> layer nr=14
G92 E0
G1 Z4.25 F6000
M572 D0 S0.0612
G1 X200.0 Y150.2 E0.02 F900
G1 X175.0 Y150.2 E1.2672 F3600
G1 X150.0 Y150.2 E2.5145 F900
G1 X125.0 Y150.2 E3.7617 F3600
G1 X100.0 Y150.2 E5.009 F900
G1 X100.0 Y149.8 E5.0289 F900
G1 X125.0 Y149.8 E6.2762 F3600
G1 X150.0 Y149.8 E7.5234 F900
G1 X175.0 Y149.8 E8.7707 F3600
G1 X200.0 Y149.8 E10.018 F900

; -> layer nr=15
G92 E0
G1 Z4.55 F6000
M572 D0 S0.0673
G1 X200.0 Y150.2 E0.02 F900
G1 X175.0 Y150.2 E1.2672 F3600
G1 X150.0 Y150.2 E2.5145 F900
G1 X125.0 Y150.2 E3.7617 F3600
G1 X100.0 Y150.2 E5.009 F900
G1 X100.0 Y149.8 E5.0289 F900
G1 X125.0 Y149.8 E6.2762 F3600
G1 X150.0 Y149.8 E7.5234 F900
G1 X175.0 Y149.8 E8.7707 F3600
G1 X200.0 Y149.8 E10.018 F900

; -> layer nr=16
G92 E0
G1 Z4.85 F6000
M572 D0 S0.0735
G1 X200.0 Y150.2 E0.02 F900
G1 X175.0 Y150.2 E1.2672 F3600
G1 X150.0 Y150.2 E2.5145 F900
G1 X125.0 Y150.2 E3.7617 F3600
G1 X100.0 Y150.2 E5.009 F900
G1 X100.0 Y149.8 E5.0289 F900
G1 X125.0 Y149.8 E6.2762 F3600
G1 X150.0 Y149.8 E7.5234 F900
G1 X175.0 Y149.8 E8.7707 F3600
G1 X200.0 Y149.8 E10.018 F900

; -> layer nr=17
G92 E0
G1 Z5.15 F6000
M572 D0 S0.0796
G1 X200.0 Y150.2 E0.02 F900
G1 X175.0 Y150.2 E1.2672 F3600
G1 X150.0 Y150.2 E2.5145 F900
G1 X125.0 Y150.2 E3.7617 F3600
G1 X100.0 Y150.2 E5.009 F900
G1 X100.0 Y149.8 E5.0289 F900
G1 X125.0 Y149.8 E6.2762 F3600
G1 X150.0 Y149.8 E7.5234 F900
G1 X175.0 Y149.8 E8.7707 F3600
G1 X200.0 Y149.8 E10.018 F900

; -> layer nr=18
G92 E0
G1 Z5.45 F6000
M572 D0 S0.0857
G1 X200.0 Y150.2 E0.02 F900
G1 X175.0 Y150.2 E1.2672 F3600
G1 X150.0 Y150.2 E2.5145 F900
G1 X125.0 Y150.2 E3.7617 F3600
G1 X100.0 Y150.2 E5.009 F900
G1 X100.0 Y149.8 E5.0289 F900
G1 X125.0 Y149.8 E6.2762 F3600
G1 X150.0 Y149.8 E7.5234 F900
G1 X175.0 Y149.8 E8.7707 F3600
G1 X200.0 Y149.8 E10.018 F900

; -> layer nr=19
G92 E0
G1 Z5.75 F6000
M572 D0 S0.0918
G1 X200.0 Y150.2 E0.02 F900
G1 X175.0 Y150.2 E1.2672 F3600
G1 X150.0 Y150.2 E2.5145 F900
G1 X125.0 Y150.2 E3.7617 F3600
G1 X100.0 Y150.2 E5.009 F900
G1 X100.0 Y149.8 E5.0289 F900
G1 X125.0 Y149.8 E6.2762 F3600
G1 X150.0 Y149.8 E7.5234 F900
G1 X175.0 Y149.8 E8.7707 F3600
G1 X200.0 Y149.8 E10.018 F900

; -> layer nr=20
G92 E0
G1 Z6.05 F6000
M572 D0 S0.098
G1 X200.0 Y150.2 E0.02 F900
G1 X175.0 Y150.2 E1.2672 F3600
G1 X150.0 Y150.2 E2.5145 F900
G1 X125.0 Y150.2 E3.7617 F3600
G1 X100.0 Y150.2 E5.009 F900
G1 X100.0 Y149.8 E5.0289 F900
G1 X125.0 Y149.8 E6.2762 F3600
G1 X150.0 Y149.8 E7.5234 F900
G1 X175.0 Y149.8 E8.7707 F3600
G1 X200.0 Y149.8 E10.018 F900

; -> layer nr=21
G92 E0
G1 Z6.35 F6000
M572 D0 S0.1041
G1 X200.0 Y150.2 E0.02 F900
G1 X175.0 Y150.2 E1.2672 F3600
G1 X150.0 Y150.2 E2.5145 F900
G1 X125.0 Y150.2 E3.7617 F3600
G1 X100.0 Y150.2 E5.009 F900
G1 X100.0 Y149.8 E5.0289 F900
G1 X125.0 Y149.8 E6.2762 F3600
G1 X150.0 Y149.8 E7.5234 F900
G1 X175.0 Y149.8 E8.7707 F3600
G1 X200.0 Y149.8 E10.018 F900

; -> layer nr=22
G92 E0
G1 Z6.65 F6000
M572 D0 S0.1102
G1 X200.0 Y150.2 E0.02 F900
G1 X175.0 Y150.2 E1.2672 F3600
G1 X150.0 Y150.2 E2.5145 F900
G1 X125.0 Y150.2 E3.7617 F3600
G1 X100.0 Y150.2 E5.009 F900
G1 X100.0 Y149.8 E5.0289 F900
G1 X125.0 Y149.8 E6.2762 F3600
G1 X150.0 Y149.8 E7.5234 F900
G1 X175.0 Y149.8 E8.7707 F3600
G1 X200.0 Y149.8 E10.018 F900

; -> layer nr=23
G92 E0
G1 Z6.95 F6000
M572 D0 S0.1163
G1 X200.0 Y150.2 E0.02 F900
G1 X175.0 Y150.2 E1.2672 F3600
G1 X150.0 Y150.2 E2.5145 F900
G1 X125.0 Y150.2 E3.7617 F3600
G1 X100.0 Y150.2 E5.009 F900
G1 X100.0 Y149.8 E5.0289 F900
G1 X125.0 Y149.8 E6.2762 F3600
G1 X150.0 Y149.8 E7.5234 F900
G1 X175.0 Y149.8 E8.7707 F3600
G1 X200.0 Y149.8 E10.018 F900

; -> layer nr=24
G92 E0
G1 Z7.25 F6000
M572 D0 S0.1224
G1 X200.0 Y150.2 E0.02 F900
G1 X175.0 Y150.2 E1.2672 F3600
G1 X150.0 Y150.2 E2.5145 F900
G1 X125.0 Y150.2 E3.7617 F3600
G1 X100.0 Y150.2 E5.009 F900
G1 X100.0 Y149.8 E5.0289 F900
G1 X125.0 Y149.8 E6.2762 F3600
G1 X150.0 Y149.8 E7.5234 F900
G1 X175.0 Y149.8 E8.7707 F3600
G1 X200.0 Y149.8 E10.018 F900

; -> layer nr=25
G92 E0
G1 Z7.55 F6000
M572 D0 S0.1286
G1 X200.0 Y150.2 E0.02 F900
G1 X175.0 Y150.2 E1.2672 F3600
G1 X150.0 Y150.2 E2.5145 F900
G1 X125.0 Y150.2 E3.7617 F3600
G1 X100.0 Y150.2 E5.009 F900
G1 X100.0 Y149.8 E5.0289 F900
G1 X125.0 Y149.8 E6.2762 F3600
G1 X150.0 Y149.8 E7.5234 F900
G1 X175.0 Y149.8 E8.7707 F3600
G1 X200.0 Y149.8 E10.018 F900

; -> layer nr=26
G92 E0
G1 Z7.85 F6000
M572 D0 S0.1347
G1 X200.0 Y150.2 E0.02 F900
G1 X175.0 Y150.2 E1.2672 F3600
G1 X150.0 Y150.2 E2.5145 F900
G1 X125.0 Y150.2 E3.7617 F3600
G1 X100.0 Y150.2 E5.009 F900
G1 X100.0 Y149.8 E5.0289 F900
G1 X125.0 Y149.8 E6.2762 F3600
G1 X150.0 Y149.8 E7.5234 F900
G1 X175.0 Y149.8 E8.7707 F3600
G1 X200.0 Y149.8 E10.018 F900

; -> layer nr=27
G92 E0
G1 Z8.15 F6000
M572 D0 S0.1408
G1 X200.0 Y150.2 E0.02 F900
G1 X175.0 Y150.2 E1.2672 F3600
G1 X150.0 Y150.2 E2.5145 F900
G1 X125.0 Y150.2 E3.7617 F3600
G1 X100.0 Y150.2 E5.009 F900
G1 X100.0 Y149.8 E5.0289 F900
G1 X125.0 Y149.8 E6.2762 F3600
G1 X150.0 Y149.8 E7.5234 F900
G1 X175.0 Y149.8 E8.7707 F3600
G1 X200.0 Y149.8 E10.018 F900

; -> layer nr=28
G92 E0
G1 Z8.45 F6000
M572 D0 S0.1469
G1 X200.0 Y150.2 E0.02 F900
G1 X175.0 Y150.2 E1.2672 F3600
G1 X150.0 Y150.2 E2.5145 F900
G1 X125.0 Y150.2 E3.7617 F3600
G1 X100.0 Y150.2 E5.009 F900
G1 X100.0 Y149.8 E5.0289 F900
G1 X125.0 Y149.8 E6.2762 F3600
G1 X150.0 Y149.8 E7.5234 F900
G1 X175.0 Y149.8 E8.7707 F3600
G1 X200.0 Y149.8 E10.018 F900

; -> layer nr=29
G92 E0
G1 Z8.75 F6000
M572 D0 S0.1531
G1 X200.0 Y150.2 E0.02 F900
G1 X175.0 Y150.2 E1.2672 F3600
G1 X150.0 Y150.2 E2.5145 F900
G1 X125.0 Y150.2 E3.7617 F3600
G1 X100.0 Y150.2 E5.009 F900
G1 X100.0 Y149.8 E5.0289 F900
G1 X125.0 Y149.8 E6.2762 F3600
G1 X150.0 Y149.8 E7.5234 F900
G1 X175.0 Y149.8 E8.7707 F3600
G1 X200.0 Y149.8 E10.018 F900

; -> layer nr=30
G92 E0
G1 Z9.05 F6000
M572 D0 S0.1592
G1 X200.0 Y150.2 E0.02 F900
G1 X175.0 Y150.2 E1.2672 F3600
G1 X150.0 Y150.2 E2.5145 F900
G1 X125.0 Y150.2 E3.7617 F3600
G1 X100.0 Y150.2 E5.009 F900
G1 X100.0 Y149.8 E5.0289 F900
G1 X125.0 Y149.8 E6.2762 F3600
G1 X150.0 Y149.8 E7.5234 F900
G1 X175.0 Y149.8 E8.7707 F3600
G1 X200.0 Y149.8 E10.018 F900

; -> layer nr=31
G92 E0
G1 Z9.35 F6000
M572 D0 S0.1653
G1 X200.0 Y150.2 E0.02 F900
G1 X175.0 Y150.2 E1.2672 F3600
G1 X150.0 Y150.2 E2.5145 F900
G1 X125.0 Y150.2 E3.7617 F3600
G1 X100.0 Y150.2 E5.009 F900
G1 X100.0 Y149.8 E5.0289 F900
G1 X125.0 Y149.8 E6.2762 F3600
G1 X150.0 Y149.8 E7.5234 F900
G1 X175.0 Y149.8 E8.7707 F3600
G1 X200.0 Y149.8 E10.018 F900

; -> layer nr=32
G92 E0
G1 Z9.65 F6000
M572 D0 S0.1714
G1 X200.0 Y150.2 E0.02 F900
G1 X175.0 Y150.2 E1.2672 F3600
G1 X150.0 Y150.2 E2.5145 F900
G1 X125.0 Y150.2 E3.7617 F3600
G1 X100.0 Y150.2 E5.009 F900
G1 X100.0 Y149.8 E5.0289 F900
G1 X125.0 Y149.8 E6.2762 F3600
G1 X150.0 Y149.8 E7.5234 F900
G1 X175.0 Y149.8 E8.7707 F3600
G1 X200.0 Y149.8 E10.018 F900

; -> layer nr=33
G92 E0
G1 Z9.95 F6000
M572 D0 S0.1776
G1 X200.0 Y150.2 E0.02 F900
G1 X175.0 Y150.2 E1.2672 F3600
G1 X150.0 Y150.2 E2.5145 F900
G1 X125.0 Y150.2 E3.7617 F3600
G1 X100.0 Y150.2 E5.009 F900
G1 X100.0 Y149.8 E5.0289 F900
G1 X125.0 Y149.8 E6.2762 F3600
G1 X150.0 Y149.8 E7.5234 F900
G1 X175.0 Y149.8 E8.7707 F3600
G1 X200.0 Y149.8 E10.018 F900

; -> layer nr=34
G92 E0
G1 Z10.25 F6000
M572 D0 S0.1837
G1 X200.0 Y150.2 E0.02 F900
G1 X175.0 Y150.2 E1.2672 F3600
G1 X150.0 Y150.2 E2.5145 F900
G1 X125.0 Y150.2 E3.7617 F3600
G1 X100.0 Y150.2 E5.009 F900
G1 X100.0 Y149.8 E5.0289 F900
G1 X125.0 Y149.8 E6.2762 F3600
G1 X150.0 Y149.8 E7.5234 F900
G1 X175.0 Y149.8 E8.7707 F3600
G1 X200.0 Y149.8 E10.018 F900

; -> layer nr=35
G92 E0
G1 Z10.55 F6000
M572 D0 S0.1898
G1 X200.0 Y150.2 E0.02 F900
G1 X175.0 Y150.2 E1.2672 F3600
G1 X150.0 Y150.2 E2.5145 F900
G1 X125.0 Y150.2 E3.7617 F3600
G1 X100.0 Y150.2 E5.009 F900
G1 X100.0 Y149.8 E5.0289 F900
G1 X125.0 Y149.8 E6.2762 F3600
G1 X150.0 Y149.8 E7.5234 F900
G1 X175.0 Y149.8 E8.7707 F3600
G1 X200.0 Y149.8 E10.018 F900

; -> layer nr=36
G92 E0
G1 Z10.85 F6000
M572 D0 S0.1959
G1 X200.0 Y150.2 E0.02 F900
G1 X175.0 Y150.2 E1.2672 F3600
G1 X150.0 Y150.2 E2.5145 F900
G1 X125.0 Y150.2 E3.7617 F3600
G1 X100.0 Y150.2 E5.009 F900
G1 X100.0 Y149.8 E5.0289 F900
G1 X125.0 Y149.8 E6.2762 F3600
G1 X150.0 Y149.8 E7.5234 F900
G1 X175.0 Y149.8 E8.7707 F3600
G1 X200.0 Y149.8 E10.018 F900

; -> layer nr=37
G92 E0
G1 Z11.15 F6000
M572 D0 S0.202
G1 X200.0 Y150.2 E0.02 F900
G1 X175.0 Y150.2 E1.2672 F3600
G1 X150.0 Y150.2 E2.5145 F900
G1 X125.0 Y150.2 E3.7617 F3600
G1 X100.0 Y150.2 E5.009 F900
G1 X100.0 Y149.8 E5.0289 F900
G1 X125.0 Y149.8 E6.2762 F3600
G1 X150.0 Y149.8 E7.5234 F900
G1 X175.0 Y149.8 E8.7707 F3600
G1 X200.0 Y149.8 E10.018 F900

; -> layer nr=38
G92 E0
G1 Z11.45 F6000
M572 D0 S0.2082
G1 X200.0 Y150.2 E0.02 F900
G1 X175.0 Y150.2 E1.2672 F3600
G1 X150.0 Y150.2 E2.5145 F900
G1 X125.0 Y150.2 E3.7617 F3600
G1 X100.0 Y150.2 E5.009 F900
G1 X100.0 Y149.8 E5.0289 F900
G1 X125.0 Y149.8 E6.2762 F3600
G1 X150.0 Y149.8 E7.5234 F900
G1 X175.0 Y149.8 E8.7707 F3600
G1 X200.0 Y149.8 E10.018 F900

; -> layer nr=39
G92 E0
G1 Z11.75 F6000
M572 D0 S0.2143
G1 X200.0 Y150.2 E0.02 F900
G1 X175.0 Y150.2 E1.2672 F3600
G1 X150.0 Y150.2 E2.5145 F900
G1 X125.0 Y150.2 E3.7617 F3600
G1 X100.0 Y150.2 E5.009 F900
G1 X100.0 Y149.8 E5.0289 F900
G1 X125.0 Y149.8 E6.2762 F3600
G1 X150.0 Y149.8 E7.5234 F900
G1 X175.0 Y149.8 E8.7707 F3600
G1 X200.0 Y149.8 E10.018 F900

; -> layer nr=40
G92 E0
G1 Z12.05 F6000
M572 D0 S0.2204
G1 X200.0 Y150.2 E0.02 F900
G1 X175.0 Y150.2 E1.2672 F3600
G1 X150.0 Y150.2 E2.5145 F900
G1 X125.0 Y150.2 E3.7617 F3600
G1 X100.0 Y150.2 E5.009 F900
G1 X100.0 Y149.8 E5.0289 F900
G1 X125.0 Y149.8 E6.2762 F3600
G1 X150.0 Y149.8 E7.5234 F900
G1 X175.0 Y149.8 E8.7707 F3600
G1 X200.0 Y149.8 E10.018 F900

; -> layer nr=41
G92 E0
G1 Z12.35 F6000
M572 D0 S0.2265
G1 X200.0 Y150.2 E0.02 F900
G1 X175.0 Y150.2 E1.2672 F3600
G1 X150.0 Y150.2 E2.5145 F900
G1 X125.0 Y150.2 E3.7617 F3600
G1 X100.0 Y150.2 E5.009 F900
G1 X100.0 Y149.8 E5.0289 F900
G1 X125.0 Y149.8 E6.2762 F3600
G1 X150.0 Y149.8 E7.5234 F900
G1 X175.0 Y149.8 E8.7707 F3600
G1 X200.0 Y149.8 E10.018 F900

; -> layer nr=42
G92 E0
G1 Z12.65 F6000
M572 D0 S0.2327
G1 X200.0 Y150.2 E0.02 F900
G1 X175.0 Y150.2 E1.2672 F3600
G1 X150.0 Y150.2 E2.5145 F900
G1 X125.0 Y150.2 E3.7617 F3600
G1 X100.0 Y150.2 E5.009 F900
G1 X100.0 Y149.8 E5.0289 F900
G1 X125.0 Y149.8 E6.2762 F3600
G1 X150.0 Y149.8 E7.5234 F900
G1 X175.0 Y149.8 E8.7707 F3600
G1 X200.0 Y149.8 E10.018 F900

; -> layer nr=43
G92 E0
G1 Z12.95 F6000
M572 D0 S0.2388
G1 X200.0 Y150.2 E0.02 F900
G1 X175.0 Y150.2 E1.2672 F3600
G1 X150.0 Y150.2 E2.5145 F900
G1 X125.0 Y150.2 E3.7617 F3600
G1 X100.0 Y150.2 E5.009 F900
G1 X100.0 Y149.8 E5.0289 F900
G1 X125.0 Y149.8 E6.2762 F3600
G1 X150.0 Y149.8 E7.5234 F900
G1 X175.0 Y149.8 E8.7707 F3600
G1 X200.0 Y149.8 E10.018 F900

; -> layer nr=44
G92 E0
G1 Z13.25 F6000
M572 D0 S0.2449
G1 X200.0 Y150.2 E0.02 F900
G1 X175.0 Y150.2 E1.2672 F3600
G1 X150.0 Y150.2 E2.5145 F900
G1 X125.0 Y150.2 E3.7617 F3600
G1 X100.0 Y150.2 E5.009 F900
G1 X100.0 Y149.8 E5.0289 F900
G1 X125.0 Y149.8 E6.2762 F3600
G1 X150.0 Y149.8 E7.5234 F900
G1 X175.0 Y149.8 E8.7707 F3600
G1 X200.0 Y149.8 E10.018 F900

; -> layer nr=45
G92 E0
G1 Z13.55 F6000
M572 D0 S0.251
G1 X200.0 Y150.2 E0.02 F900
G1 X175.0 Y150.2 E1.2672 F3600
G1 X150.0 Y150.2 E2.5145 F900
G1 X125.0 Y150.2 E3.7617 F3600
G1 X100.0 Y150.2 E5.009 F900
G1 X100.0 Y149.8 E5.0289 F900
G1 X125.0 Y149.8 E6.2762 F3600
G1 X150.0 Y149.8 E7.5234 F900
G1 X175.0 Y149.8 E8.7707 F3600
G1 X200.0 Y149.8 E10.018 F900

; -> layer nr=46
G92 E0
G1 Z13.85 F6000
M572 D0 S0.2571
G1 X200.0 Y150.2 E0.02 F900
G1 X175.0 Y150.2 E1.2672 F3600
G1 X150.0 Y150.2 E2.5145 F900
G1 X125.0 Y150.2 E3.7617 F3600
G1 X100.0 Y150.2 E5.009 F900
G1 X100.0 Y149.8 E5.0289 F900
G1 X125.0 Y149.8 E6.2762 F3600
G1 X150.0 Y149.8 E7.5234 F900
G1 X175.0 Y149.8 E8.7707 F3600
G1 X200.0 Y149.8 E10.018 F900

; -> layer nr=47
G92 E0
G1 Z14.15 F6000
M572 D0 S0.2633
G1 X200.0 Y150.2 E0.02 F900
G1 X175.0 Y150.2 E1.2672 F3600
G1 X150.0 Y150.2 E2.5145 F900
G1 X125.0 Y150.2 E3.7617 F3600
G1 X100.0 Y150.2 E5.009 F900
G1 X100.0 Y149.8 E5.0289 F900
G1 X125.0 Y149.8 E6.2762 F3600
G1 X150.0 Y149.8 E7.5234 F900
G1 X175.0 Y149.8 E8.7707 F3600
G1 X200.0 Y149.8 E10.018 F900

; -> layer nr=48
G92 E0
G1 Z14.45 F6000
M572 D0 S0.2694
G1 X200.0 Y150.2 E0.02 F900
G1 X175.0 Y150.2 E1.2672 F3600
G1 X150.0 Y150.2 E2.5145 F900
G1 X125.0 Y150.2 E3.7617 F3600
G1 X100.0 Y150.2 E5.009 F900
G1 X100.0 Y149.8 E5.0289 F900
G1 X125.0 Y149.8 E6.2762 F3600
G1 X150.0 Y149.8 E7.5234 F900
G1 X175.0 Y149.8 E8.7707 F3600
G1 X200.0 Y149.8 E10.018 F900

; -> layer nr=49
G92 E0
G1 Z14.75 F6000
M572 D0 S0.2755
G1 X200.0 Y150.2 E0.02 F900
G1 X175.0 Y150.2 E1.2672 F3600
G1 X150.0 Y150.2 E2.5145 F900
G1 X125.0 Y150.2 E3.7617 F3600
G1 X100.0 Y150.2 E5.009 F900
G1 X100.0 Y149.8 E5.0289 F900
G1 X125.0 Y149.8 E6.2762 F3600
G1 X150.0 Y149.8 E7.5234 F900
G1 X175.0 Y149.8 E8.7707 F3600
G1 X200.0 Y149.8 E10.018 F900

; -> layer nr=50
G92 E0
G1 Z15.05 F6000
M572 D0 S0.2816
G1 X200.0 Y150.2 E0.02 F900
G1 X175.0 Y150.2 E1.2672 F3600
G1 X150.0 Y150.2 E2.5145 F900
G1 X125.0 Y150.2 E3.7617 F3600
G1 X100.0 Y150.2 E5.009 F900
G1 X100.0 Y149.8 E5.0289 F900
G1 X125.0 Y149.8 E6.2762 F3600
G1 X150.0 Y149.8 E7.5234 F900
G1 X175.0 Y149.8 E8.7707 F3600
G1 X200.0 Y149.8 E10.018 F900

; -> layer nr=51
G92 E0
G1 Z15.35 F6000
M572 D0 S0.2878
G1 X200.0 Y150.2 E0.02 F900
G1 X175.0 Y150.2 E1.2672 F3600
G1 X150.0 Y150.2 E2.5145 F900
G1 X125.0 Y150.2 E3.7617 F3600
G1 X100.0 Y150.2 E5.009 F900
G1 X100.0 Y149.8 E5.0289 F900
G1 X125.0 Y149.8 E6.2762 F3600
G1 X150.0 Y149.8 E7.5234 F900
G1 X175.0 Y149.8 E8.7707 F3600
G1 X200.0 Y149.8 E10.018 F900

; -> layer nr=52
G92 E0
G1 Z15.65 F6000
M572 D0 S0.2939
G1 X200.0 Y150.2 E0.02 F900
G1 X175.0 Y150.2 E1.2672 F3600
G1 X150.0 Y150.2 E2.5145 F900
G1 X125.0 Y150.2 E3.7617 F3600
G1 X100.0 Y150.2 E5.009 F900
G1 X100.0 Y149.8 E5.0289 F900
G1 X125.0 Y149.8 E6.2762 F3600
G1 X150.0 Y149.8 E7.5234 F900
G1 X175.0 Y149.8 E8.7707 F3600
G1 X200.0 Y149.8 E10.018 F900

; -> layer nr=53
G92 E0
G1 Z15.95 F6000
M572 D0 S0.3
G1 X200.0 Y150.2 E0.02 F900
G1 X175.0 Y150.2 E1.2672 F3600
G1 X150.0 Y150.2 E2.5145 F900
G1 X125.0 Y150.2 E3.7617 F3600
G1 X100.0 Y150.2 E5.009 F900
G1 X100.0 Y149.8 E5.0289 F900
G1 X125.0 Y149.8 E6.2762 F3600
G1 X150.0 Y149.8 E7.5234 F900
G1 X175.0 Y149.8 E8.7707 F3600
G1 X200.0 Y149.8 E10.018 F900

; --------------------
;     gcode footer    
; --------------------
M140 S0 ; turn off bed 
G10 P0 R0 S0 ; set extruder temp 
T-1 ; omitted if tool_index = -1 
G91 G1 Z5 F3000 ; move extruder up 5 
G1 X0 Y0 F3000 
