; --------------------
;     gcode header    
; --------------------
G90 ; set absolute coordinates 
M82 ; set absolute extruder moves 
M106 S0 ; turn off part cooling fan 
M190 S60 ; set and wait for bed temp 
G28 U Y X Z ; home all axes 
G10 P0 S220 ; set extruder temp 
M109 S220 ; wait for extruder temp 
T0 ; select tool 
M703 ; load filament configs 
M572 D0 S0.0 

; --------------------
;    gcode generated  
;      model base     
; --------------------

; -> layer nr=1
G92 E0
G1 Z0.35 F6000
G1 X100.0 Y150.0 F12000
G1 X200.0 Y150.0 E6.9846 F900
G1 X200.4 Y149.6 E7.0241 F900
G1 X200.4 Y150.4 E7.08 F900
G1 X99.6 Y150.4 E14.1205 F900
G1 X99.6 Y149.6 E14.1764 F900
G1 X200.8 Y149.2 E21.2449 F900
G1 X200.8 Y150.8 E21.3567 F900
G1 X99.2 Y150.8 E28.453 F900
G1 X99.2 Y149.2 E28.5648 F900
G1 X201.2 Y148.8 E35.6892 F900
G1 X201.2 Y151.2 E35.8568 F900
G1 X98.8 Y151.2 E43.0091 F900
G1 X98.8 Y148.8 E43.1767 F900
G1 X201.6 Y148.4 E50.3569 F900
G1 X201.6 Y151.6 E50.5804 F900
G1 X98.4 Y151.6 E57.7886 F900
G1 X98.4 Y148.4 E58.0121 F900
G1 X202.0 Y148.0 E65.2482 F900
G1 X202.0 Y152.0 E65.5276 F900
G1 X98.0 Y152.0 E72.7916 F900
G1 X98.0 Y148.0 E73.071 F900
G1 X202.4 Y147.6 E80.363 F900
G1 X202.4 Y152.4 E80.6983 F900
G1 X97.6 Y152.4 E88.0182 F900
G1 X97.6 Y147.6 E88.3534 F900
G1 X202.8 Y147.2 E95.7013 F900
G1 X202.8 Y152.8 E96.0924 F900
G1 X97.2 Y152.8 E103.4682 F900
G1 X97.2 Y147.2 E103.8594 F900
G1 X203.2 Y146.8 E111.2631 F900
G1 X203.2 Y153.2 E111.7101 F900
G1 X96.8 Y153.2 E119.1418 F900
G1 X96.8 Y146.8 E119.5888 F900
G1 X203.6 Y146.4 E127.0484 F900
G1 X203.6 Y153.6 E127.5513 F900
G1 X96.4 Y153.6 E135.0388 F900
G1 X96.4 Y146.4 E135.5417 F900

; -> layer nr=2
G92 E0
G1 Z0.55 F6000
G1 X100.0 Y150.0 F12000
G1 X200.0 Y150.0 E3.326 F900
G1 X200.4 Y149.6 E3.3448 F900
G1 X200.4 Y150.4 E3.3714 F900
G1 X99.6 Y150.4 E6.7241 F900
G1 X99.6 Y149.6 E6.7507 F900
G1 X200.8 Y149.2 E10.1166 F900
G1 X200.8 Y150.8 E10.1698 F900
G1 X99.2 Y150.8 E13.5491 F900
G1 X99.2 Y149.2 E13.6023 F900
G1 X201.2 Y148.8 E16.9948 F900
G1 X201.2 Y151.2 E17.0747 F900
G1 X98.8 Y151.2 E20.4805 F900
G1 X98.8 Y148.8 E20.5603 F900
G1 X201.6 Y148.4 E23.9795 F900
G1 X201.6 Y151.6 E24.0859 F900
G1 X98.4 Y151.6 E27.5184 F900
G1 X98.4 Y148.4 E27.6248 F900
G1 X202.0 Y148.0 E31.0706 F900
G1 X202.0 Y152.0 E31.2036 F900
G1 X98.0 Y152.0 E34.6627 F900
G1 X98.0 Y148.0 E34.7957 F900
G1 X202.4 Y147.6 E38.2681 F900
G1 X202.4 Y152.4 E38.4277 F900
G1 X97.6 Y152.4 E41.9134 F900
G1 X97.6 Y147.6 E42.0731 F900
G1 X202.8 Y147.2 E45.5721 F900
G1 X202.8 Y152.8 E45.7583 F900
G1 X97.2 Y152.8 E49.2706 F900
G1 X97.2 Y147.2 E49.4568 F900
G1 X203.2 Y146.8 E52.9824 F900
G1 X203.2 Y153.2 E53.1953 F900
G1 X96.8 Y153.2 E56.7342 F900
G1 X96.8 Y146.8 E56.947 F900
G1 X203.6 Y146.4 E60.4992 F900
G1 X203.6 Y153.6 E60.7387 F900
G1 X96.4 Y153.6 E64.3042 F900
G1 X96.4 Y146.4 E64.5437 F900

; -> layer nr=3
G92 E0
G1 Z0.75 F6000
G1 X100.0 Y150.0 F12000
G1 X200.0 Y150.0 E3.326 F900
G1 X200.4 Y149.6 E3.3448 F900
G1 X200.4 Y150.4 E3.3714 F900
G1 X99.6 Y150.4 E6.7241 F900
G1 X99.6 Y149.6 E6.7507 F900
G1 X200.8 Y149.2 E10.1166 F900
G1 X200.8 Y150.8 E10.1698 F900
G1 X99.2 Y150.8 E13.5491 F900
G1 X99.2 Y149.2 E13.6023 F900
G1 X201.2 Y148.8 E16.9948 F900
G1 X201.2 Y151.2 E17.0747 F900
G1 X98.8 Y151.2 E20.4805 F900
G1 X98.8 Y148.8 E20.5603 F900
G1 X201.6 Y148.4 E23.9795 F900
G1 X201.6 Y151.6 E24.0859 F900
G1 X98.4 Y151.6 E27.5184 F900
G1 X98.4 Y148.4 E27.6248 F900
G1 X202.0 Y148.0 E31.0706 F900
G1 X202.0 Y152.0 E31.2036 F900
G1 X98.0 Y152.0 E34.6627 F900
G1 X98.0 Y148.0 E34.7957 F900
G1 X202.4 Y147.6 E38.2681 F900
G1 X202.4 Y152.4 E38.4277 F900
G1 X97.6 Y152.4 E41.9134 F900
G1 X97.6 Y147.6 E42.0731 F900
G1 X202.8 Y147.2 E45.5721 F900
G1 X202.8 Y152.8 E45.7583 F900
G1 X97.2 Y152.8 E49.2706 F900
G1 X97.2 Y147.2 E49.4568 F900
G1 X203.2 Y146.8 E52.9824 F900
G1 X203.2 Y153.2 E53.1953 F900
G1 X96.8 Y153.2 E56.7342 F900
G1 X96.8 Y146.8 E56.947 F900
G1 X203.6 Y146.4 E60.4992 F900
G1 X203.6 Y153.6 E60.7387 F900
G1 X96.4 Y153.6 E64.3042 F900
G1 X96.4 Y146.4 E64.5437 F900

; --------------------
;    gcode generated  
;       model top     
; --------------------

; -> layer nr=4
G92 E0
G1 Z0.95 F6000
M572 D0 S0.0
G1 X200.0 Y150.2 E3.4481 F900
G1 X175.0 Y150.2 E4.2796 F6000
G1 X150.0 Y150.2 E5.1111 F900
G1 X125.0 Y150.2 E5.9426 F6000
G1 X100.0 Y150.2 E6.7741 F900
G1 X100.0 Y149.8 E6.7874 F900
G1 X125.0 Y149.8 E7.6189 F6000
G1 X150.0 Y149.8 E8.4504 F900
G1 X175.0 Y149.8 E9.2819 F6000
G1 X200.0 Y149.8 E10.1134 F900

; -> layer nr=5
G92 E0
G1 Z1.15 F6000
M572 D0 S0.0041
G1 X200.0 Y150.2 E0.0133 F900
G1 X175.0 Y150.2 E0.8448 F6000
G1 X150.0 Y150.2 E1.6763 F900
G1 X125.0 Y150.2 E2.5078 F6000
G1 X100.0 Y150.2 E3.3393 F900
G1 X100.0 Y149.8 E3.3526 F900
G1 X125.0 Y149.8 E4.1841 F6000
G1 X150.0 Y149.8 E5.0156 F900
G1 X175.0 Y149.8 E5.8471 F6000
G1 X200.0 Y149.8 E6.6786 F900

; -> layer nr=6
G92 E0
G1 Z1.35 F6000
M572 D0 S0.0081
G1 X200.0 Y150.2 E0.0133 F900
G1 X175.0 Y150.2 E0.8448 F6000
G1 X150.0 Y150.2 E1.6763 F900
G1 X125.0 Y150.2 E2.5078 F6000
G1 X100.0 Y150.2 E3.3393 F900
G1 X100.0 Y149.8 E3.3526 F900
G1 X125.0 Y149.8 E4.1841 F6000
G1 X150.0 Y149.8 E5.0156 F900
G1 X175.0 Y149.8 E5.8471 F6000
G1 X200.0 Y149.8 E6.6786 F900

; -> layer nr=7
G92 E0
G1 Z1.55 F6000
M572 D0 S0.0122
G1 X200.0 Y150.2 E0.0133 F900
G1 X175.0 Y150.2 E0.8448 F6000
G1 X150.0 Y150.2 E1.6763 F900
G1 X125.0 Y150.2 E2.5078 F6000
G1 X100.0 Y150.2 E3.3393 F900
G1 X100.0 Y149.8 E3.3526 F900
G1 X125.0 Y149.8 E4.1841 F6000
G1 X150.0 Y149.8 E5.0156 F900
G1 X175.0 Y149.8 E5.8471 F6000
G1 X200.0 Y149.8 E6.6786 F900

; -> layer nr=8
G92 E0
G1 Z1.75 F6000
M572 D0 S0.0162
G1 X200.0 Y150.2 E0.0133 F900
G1 X175.0 Y150.2 E0.8448 F6000
G1 X150.0 Y150.2 E1.6763 F900
G1 X125.0 Y150.2 E2.5078 F6000
G1 X100.0 Y150.2 E3.3393 F900
G1 X100.0 Y149.8 E3.3526 F900
G1 X125.0 Y149.8 E4.1841 F6000
G1 X150.0 Y149.8 E5.0156 F900
G1 X175.0 Y149.8 E5.8471 F6000
G1 X200.0 Y149.8 E6.6786 F900

; -> layer nr=9
G92 E0
G1 Z1.95 F6000
M572 D0 S0.0203
G1 X200.0 Y150.2 E0.0133 F900
G1 X175.0 Y150.2 E0.8448 F6000
G1 X150.0 Y150.2 E1.6763 F900
G1 X125.0 Y150.2 E2.5078 F6000
G1 X100.0 Y150.2 E3.3393 F900
G1 X100.0 Y149.8 E3.3526 F900
G1 X125.0 Y149.8 E4.1841 F6000
G1 X150.0 Y149.8 E5.0156 F900
G1 X175.0 Y149.8 E5.8471 F6000
G1 X200.0 Y149.8 E6.6786 F900

; -> layer nr=10
G92 E0
G1 Z2.15 F6000
M572 D0 S0.0243
G1 X200.0 Y150.2 E0.0133 F900
G1 X175.0 Y150.2 E0.8448 F6000
G1 X150.0 Y150.2 E1.6763 F900
G1 X125.0 Y150.2 E2.5078 F6000
G1 X100.0 Y150.2 E3.3393 F900
G1 X100.0 Y149.8 E3.3526 F900
G1 X125.0 Y149.8 E4.1841 F6000
G1 X150.0 Y149.8 E5.0156 F900
G1 X175.0 Y149.8 E5.8471 F6000
G1 X200.0 Y149.8 E6.6786 F900

; -> layer nr=11
G92 E0
G1 Z2.35 F6000
M572 D0 S0.0284
G1 X200.0 Y150.2 E0.0133 F900
G1 X175.0 Y150.2 E0.8448 F6000
G1 X150.0 Y150.2 E1.6763 F900
G1 X125.0 Y150.2 E2.5078 F6000
G1 X100.0 Y150.2 E3.3393 F900
G1 X100.0 Y149.8 E3.3526 F900
G1 X125.0 Y149.8 E4.1841 F6000
G1 X150.0 Y149.8 E5.0156 F900
G1 X175.0 Y149.8 E5.8471 F6000
G1 X200.0 Y149.8 E6.6786 F900

; -> layer nr=12
G92 E0
G1 Z2.55 F6000
M572 D0 S0.0324
G1 X200.0 Y150.2 E0.0133 F900
G1 X175.0 Y150.2 E0.8448 F6000
G1 X150.0 Y150.2 E1.6763 F900
G1 X125.0 Y150.2 E2.5078 F6000
G1 X100.0 Y150.2 E3.3393 F900
G1 X100.0 Y149.8 E3.3526 F900
G1 X125.0 Y149.8 E4.1841 F6000
G1 X150.0 Y149.8 E5.0156 F900
G1 X175.0 Y149.8 E5.8471 F6000
G1 X200.0 Y149.8 E6.6786 F900

; -> layer nr=13
G92 E0
G1 Z2.75 F6000
M572 D0 S0.0365
G1 X200.0 Y150.2 E0.0133 F900
G1 X175.0 Y150.2 E0.8448 F6000
G1 X150.0 Y150.2 E1.6763 F900
G1 X125.0 Y150.2 E2.5078 F6000
G1 X100.0 Y150.2 E3.3393 F900
G1 X100.0 Y149.8 E3.3526 F900
G1 X125.0 Y149.8 E4.1841 F6000
G1 X150.0 Y149.8 E5.0156 F900
G1 X175.0 Y149.8 E5.8471 F6000
G1 X200.0 Y149.8 E6.6786 F900

; -> layer nr=14
G92 E0
G1 Z2.95 F6000
M572 D0 S0.0405
G1 X200.0 Y150.2 E0.0133 F900
G1 X175.0 Y150.2 E0.8448 F6000
G1 X150.0 Y150.2 E1.6763 F900
G1 X125.0 Y150.2 E2.5078 F6000
G1 X100.0 Y150.2 E3.3393 F900
G1 X100.0 Y149.8 E3.3526 F900
G1 X125.0 Y149.8 E4.1841 F6000
G1 X150.0 Y149.8 E5.0156 F900
G1 X175.0 Y149.8 E5.8471 F6000
G1 X200.0 Y149.8 E6.6786 F900

; -> layer nr=15
G92 E0
G1 Z3.15 F6000
M572 D0 S0.0446
G1 X200.0 Y150.2 E0.0133 F900
G1 X175.0 Y150.2 E0.8448 F6000
G1 X150.0 Y150.2 E1.6763 F900
G1 X125.0 Y150.2 E2.5078 F6000
G1 X100.0 Y150.2 E3.3393 F900
G1 X100.0 Y149.8 E3.3526 F900
G1 X125.0 Y149.8 E4.1841 F6000
G1 X150.0 Y149.8 E5.0156 F900
G1 X175.0 Y149.8 E5.8471 F6000
G1 X200.0 Y149.8 E6.6786 F900

; -> layer nr=16
G92 E0
G1 Z3.35 F6000
M572 D0 S0.0486
G1 X200.0 Y150.2 E0.0133 F900
G1 X175.0 Y150.2 E0.8448 F6000
G1 X150.0 Y150.2 E1.6763 F900
G1 X125.0 Y150.2 E2.5078 F6000
G1 X100.0 Y150.2 E3.3393 F900
G1 X100.0 Y149.8 E3.3526 F900
G1 X125.0 Y149.8 E4.1841 F6000
G1 X150.0 Y149.8 E5.0156 F900
G1 X175.0 Y149.8 E5.8471 F6000
G1 X200.0 Y149.8 E6.6786 F900

; -> layer nr=17
G92 E0
G1 Z3.55 F6000
M572 D0 S0.0527
G1 X200.0 Y150.2 E0.0133 F900
G1 X175.0 Y150.2 E0.8448 F6000
G1 X150.0 Y150.2 E1.6763 F900
G1 X125.0 Y150.2 E2.5078 F6000
G1 X100.0 Y150.2 E3.3393 F900
G1 X100.0 Y149.8 E3.3526 F900
G1 X125.0 Y149.8 E4.1841 F6000
G1 X150.0 Y149.8 E5.0156 F900
G1 X175.0 Y149.8 E5.8471 F6000
G1 X200.0 Y149.8 E6.6786 F900

; -> layer nr=18
G92 E0
G1 Z3.75 F6000
M572 D0 S0.0568
G1 X200.0 Y150.2 E0.0133 F900
G1 X175.0 Y150.2 E0.8448 F6000
G1 X150.0 Y150.2 E1.6763 F900
G1 X125.0 Y150.2 E2.5078 F6000
G1 X100.0 Y150.2 E3.3393 F900
G1 X100.0 Y149.8 E3.3526 F900
G1 X125.0 Y149.8 E4.1841 F6000
G1 X150.0 Y149.8 E5.0156 F900
G1 X175.0 Y149.8 E5.8471 F6000
G1 X200.0 Y149.8 E6.6786 F900

; -> layer nr=19
G92 E0
G1 Z3.95 F6000
M572 D0 S0.0608
G1 X200.0 Y150.2 E0.0133 F900
G1 X175.0 Y150.2 E0.8448 F6000
G1 X150.0 Y150.2 E1.6763 F900
G1 X125.0 Y150.2 E2.5078 F6000
G1 X100.0 Y150.2 E3.3393 F900
G1 X100.0 Y149.8 E3.3526 F900
G1 X125.0 Y149.8 E4.1841 F6000
G1 X150.0 Y149.8 E5.0156 F900
G1 X175.0 Y149.8 E5.8471 F6000
G1 X200.0 Y149.8 E6.6786 F900

; -> layer nr=20
G92 E0
G1 Z4.15 F6000
M572 D0 S0.0649
G1 X200.0 Y150.2 E0.0133 F900
G1 X175.0 Y150.2 E0.8448 F6000
G1 X150.0 Y150.2 E1.6763 F900
G1 X125.0 Y150.2 E2.5078 F6000
G1 X100.0 Y150.2 E3.3393 F900
G1 X100.0 Y149.8 E3.3526 F900
G1 X125.0 Y149.8 E4.1841 F6000
G1 X150.0 Y149.8 E5.0156 F900
G1 X175.0 Y149.8 E5.8471 F6000
G1 X200.0 Y149.8 E6.6786 F900

; -> layer nr=21
G92 E0
G1 Z4.35 F6000
M572 D0 S0.0689
G1 X200.0 Y150.2 E0.0133 F900
G1 X175.0 Y150.2 E0.8448 F6000
G1 X150.0 Y150.2 E1.6763 F900
G1 X125.0 Y150.2 E2.5078 F6000
G1 X100.0 Y150.2 E3.3393 F900
G1 X100.0 Y149.8 E3.3526 F900
G1 X125.0 Y149.8 E4.1841 F6000
G1 X150.0 Y149.8 E5.0156 F900
G1 X175.0 Y149.8 E5.8471 F6000
G1 X200.0 Y149.8 E6.6786 F900

; -> layer nr=22
G92 E0
G1 Z4.55 F6000
M572 D0 S0.073
G1 X200.0 Y150.2 E0.0133 F900
G1 X175.0 Y150.2 E0.8448 F6000
G1 X150.0 Y150.2 E1.6763 F900
G1 X125.0 Y150.2 E2.5078 F6000
G1 X100.0 Y150.2 E3.3393 F900
G1 X100.0 Y149.8 E3.3526 F900
G1 X125.0 Y149.8 E4.1841 F6000
G1 X150.0 Y149.8 E5.0156 F900
G1 X175.0 Y149.8 E5.8471 F6000
G1 X200.0 Y149.8 E6.6786 F900

; -> layer nr=23
G92 E0
G1 Z4.75 F6000
M572 D0 S0.077
G1 X200.0 Y150.2 E0.0133 F900
G1 X175.0 Y150.2 E0.8448 F6000
G1 X150.0 Y150.2 E1.6763 F900
G1 X125.0 Y150.2 E2.5078 F6000
G1 X100.0 Y150.2 E3.3393 F900
G1 X100.0 Y149.8 E3.3526 F900
G1 X125.0 Y149.8 E4.1841 F6000
G1 X150.0 Y149.8 E5.0156 F900
G1 X175.0 Y149.8 E5.8471 F6000
G1 X200.0 Y149.8 E6.6786 F900

; -> layer nr=24
G92 E0
G1 Z4.95 F6000
M572 D0 S0.0811
G1 X200.0 Y150.2 E0.0133 F900
G1 X175.0 Y150.2 E0.8448 F6000
G1 X150.0 Y150.2 E1.6763 F900
G1 X125.0 Y150.2 E2.5078 F6000
G1 X100.0 Y150.2 E3.3393 F900
G1 X100.0 Y149.8 E3.3526 F900
G1 X125.0 Y149.8 E4.1841 F6000
G1 X150.0 Y149.8 E5.0156 F900
G1 X175.0 Y149.8 E5.8471 F6000
G1 X200.0 Y149.8 E6.6786 F900

; -> layer nr=25
G92 E0
G1 Z5.15 F6000
M572 D0 S0.0851
G1 X200.0 Y150.2 E0.0133 F900
G1 X175.0 Y150.2 E0.8448 F6000
G1 X150.0 Y150.2 E1.6763 F900
G1 X125.0 Y150.2 E2.5078 F6000
G1 X100.0 Y150.2 E3.3393 F900
G1 X100.0 Y149.8 E3.3526 F900
G1 X125.0 Y149.8 E4.1841 F6000
G1 X150.0 Y149.8 E5.0156 F900
G1 X175.0 Y149.8 E5.8471 F6000
G1 X200.0 Y149.8 E6.6786 F900

; -> layer nr=26
G92 E0
G1 Z5.35 F6000
M572 D0 S0.0892
G1 X200.0 Y150.2 E0.0133 F900
G1 X175.0 Y150.2 E0.8448 F6000
G1 X150.0 Y150.2 E1.6763 F900
G1 X125.0 Y150.2 E2.5078 F6000
G1 X100.0 Y150.2 E3.3393 F900
G1 X100.0 Y149.8 E3.3526 F900
G1 X125.0 Y149.8 E4.1841 F6000
G1 X150.0 Y149.8 E5.0156 F900
G1 X175.0 Y149.8 E5.8471 F6000
G1 X200.0 Y149.8 E6.6786 F900

; -> layer nr=27
G92 E0
G1 Z5.55 F6000
M572 D0 S0.0932
G1 X200.0 Y150.2 E0.0133 F900
G1 X175.0 Y150.2 E0.8448 F6000
G1 X150.0 Y150.2 E1.6763 F900
G1 X125.0 Y150.2 E2.5078 F6000
G1 X100.0 Y150.2 E3.3393 F900
G1 X100.0 Y149.8 E3.3526 F900
G1 X125.0 Y149.8 E4.1841 F6000
G1 X150.0 Y149.8 E5.0156 F900
G1 X175.0 Y149.8 E5.8471 F6000
G1 X200.0 Y149.8 E6.6786 F900

; -> layer nr=28
G92 E0
G1 Z5.75 F6000
M572 D0 S0.0973
G1 X200.0 Y150.2 E0.0133 F900
G1 X175.0 Y150.2 E0.8448 F6000
G1 X150.0 Y150.2 E1.6763 F900
G1 X125.0 Y150.2 E2.5078 F6000
G1 X100.0 Y150.2 E3.3393 F900
G1 X100.0 Y149.8 E3.3526 F900
G1 X125.0 Y149.8 E4.1841 F6000
G1 X150.0 Y149.8 E5.0156 F900
G1 X175.0 Y149.8 E5.8471 F6000
G1 X200.0 Y149.8 E6.6786 F900

; -> layer nr=29
G92 E0
G1 Z5.95 F6000
M572 D0 S0.1014
G1 X200.0 Y150.2 E0.0133 F900
G1 X175.0 Y150.2 E0.8448 F6000
G1 X150.0 Y150.2 E1.6763 F900
G1 X125.0 Y150.2 E2.5078 F6000
G1 X100.0 Y150.2 E3.3393 F900
G1 X100.0 Y149.8 E3.3526 F900
G1 X125.0 Y149.8 E4.1841 F6000
G1 X150.0 Y149.8 E5.0156 F900
G1 X175.0 Y149.8 E5.8471 F6000
G1 X200.0 Y149.8 E6.6786 F900

; -> layer nr=30
G92 E0
G1 Z6.15 F6000
M572 D0 S0.1054
G1 X200.0 Y150.2 E0.0133 F900
G1 X175.0 Y150.2 E0.8448 F6000
G1 X150.0 Y150.2 E1.6763 F900
G1 X125.0 Y150.2 E2.5078 F6000
G1 X100.0 Y150.2 E3.3393 F900
G1 X100.0 Y149.8 E3.3526 F900
G1 X125.0 Y149.8 E4.1841 F6000
G1 X150.0 Y149.8 E5.0156 F900
G1 X175.0 Y149.8 E5.8471 F6000
G1 X200.0 Y149.8 E6.6786 F900

; -> layer nr=31
G92 E0
G1 Z6.35 F6000
M572 D0 S0.1095
G1 X200.0 Y150.2 E0.0133 F900
G1 X175.0 Y150.2 E0.8448 F6000
G1 X150.0 Y150.2 E1.6763 F900
G1 X125.0 Y150.2 E2.5078 F6000
G1 X100.0 Y150.2 E3.3393 F900
G1 X100.0 Y149.8 E3.3526 F900
G1 X125.0 Y149.8 E4.1841 F6000
G1 X150.0 Y149.8 E5.0156 F900
G1 X175.0 Y149.8 E5.8471 F6000
G1 X200.0 Y149.8 E6.6786 F900

; -> layer nr=32
G92 E0
G1 Z6.55 F6000
M572 D0 S0.1135
G1 X200.0 Y150.2 E0.0133 F900
G1 X175.0 Y150.2 E0.8448 F6000
G1 X150.0 Y150.2 E1.6763 F900
G1 X125.0 Y150.2 E2.5078 F6000
G1 X100.0 Y150.2 E3.3393 F900
G1 X100.0 Y149.8 E3.3526 F900
G1 X125.0 Y149.8 E4.1841 F6000
G1 X150.0 Y149.8 E5.0156 F900
G1 X175.0 Y149.8 E5.8471 F6000
G1 X200.0 Y149.8 E6.6786 F900

; -> layer nr=33
G92 E0
G1 Z6.75 F6000
M572 D0 S0.1176
G1 X200.0 Y150.2 E0.0133 F900
G1 X175.0 Y150.2 E0.8448 F6000
G1 X150.0 Y150.2 E1.6763 F900
G1 X125.0 Y150.2 E2.5078 F6000
G1 X100.0 Y150.2 E3.3393 F900
G1 X100.0 Y149.8 E3.3526 F900
G1 X125.0 Y149.8 E4.1841 F6000
G1 X150.0 Y149.8 E5.0156 F900
G1 X175.0 Y149.8 E5.8471 F6000
G1 X200.0 Y149.8 E6.6786 F900

; -> layer nr=34
G92 E0
G1 Z6.95 F6000
M572 D0 S0.1216
G1 X200.0 Y150.2 E0.0133 F900
G1 X175.0 Y150.2 E0.8448 F6000
G1 X150.0 Y150.2 E1.6763 F900
G1 X125.0 Y150.2 E2.5078 F6000
G1 X100.0 Y150.2 E3.3393 F900
G1 X100.0 Y149.8 E3.3526 F900
G1 X125.0 Y149.8 E4.1841 F6000
G1 X150.0 Y149.8 E5.0156 F900
G1 X175.0 Y149.8 E5.8471 F6000
G1 X200.0 Y149.8 E6.6786 F900

; -> layer nr=35
G92 E0
G1 Z7.15 F6000
M572 D0 S0.1257
G1 X200.0 Y150.2 E0.0133 F900
G1 X175.0 Y150.2 E0.8448 F6000
G1 X150.0 Y150.2 E1.6763 F900
G1 X125.0 Y150.2 E2.5078 F6000
G1 X100.0 Y150.2 E3.3393 F900
G1 X100.0 Y149.8 E3.3526 F900
G1 X125.0 Y149.8 E4.1841 F6000
G1 X150.0 Y149.8 E5.0156 F900
G1 X175.0 Y149.8 E5.8471 F6000
G1 X200.0 Y149.8 E6.6786 F900

; -> layer nr=36
G92 E0
G1 Z7.35 F6000
M572 D0 S0.1297
G1 X200.0 Y150.2 E0.0133 F900
G1 X175.0 Y150.2 E0.8448 F6000
G1 X150.0 Y150.2 E1.6763 F900
G1 X125.0 Y150.2 E2.5078 F6000
G1 X100.0 Y150.2 E3.3393 F900
G1 X100.0 Y149.8 E3.3526 F900
G1 X125.0 Y149.8 E4.1841 F6000
G1 X150.0 Y149.8 E5.0156 F900
G1 X175.0 Y149.8 E5.8471 F6000
G1 X200.0 Y149.8 E6.6786 F900

; -> layer nr=37
G92 E0
G1 Z7.55 F6000
M572 D0 S0.1338
G1 X200.0 Y150.2 E0.0133 F900
G1 X175.0 Y150.2 E0.8448 F6000
G1 X150.0 Y150.2 E1.6763 F900
G1 X125.0 Y150.2 E2.5078 F6000
G1 X100.0 Y150.2 E3.3393 F900
G1 X100.0 Y149.8 E3.3526 F900
G1 X125.0 Y149.8 E4.1841 F6000
G1 X150.0 Y149.8 E5.0156 F900
G1 X175.0 Y149.8 E5.8471 F6000
G1 X200.0 Y149.8 E6.6786 F900

; -> layer nr=38
G92 E0
G1 Z7.75 F6000
M572 D0 S0.1378
G1 X200.0 Y150.2 E0.0133 F900
G1 X175.0 Y150.2 E0.8448 F6000
G1 X150.0 Y150.2 E1.6763 F900
G1 X125.0 Y150.2 E2.5078 F6000
G1 X100.0 Y150.2 E3.3393 F900
G1 X100.0 Y149.8 E3.3526 F900
G1 X125.0 Y149.8 E4.1841 F6000
G1 X150.0 Y149.8 E5.0156 F900
G1 X175.0 Y149.8 E5.8471 F6000
G1 X200.0 Y149.8 E6.6786 F900

; -> layer nr=39
G92 E0
G1 Z7.95 F6000
M572 D0 S0.1419
G1 X200.0 Y150.2 E0.0133 F900
G1 X175.0 Y150.2 E0.8448 F6000
G1 X150.0 Y150.2 E1.6763 F900
G1 X125.0 Y150.2 E2.5078 F6000
G1 X100.0 Y150.2 E3.3393 F900
G1 X100.0 Y149.8 E3.3526 F900
G1 X125.0 Y149.8 E4.1841 F6000
G1 X150.0 Y149.8 E5.0156 F900
G1 X175.0 Y149.8 E5.8471 F6000
G1 X200.0 Y149.8 E6.6786 F900

; -> layer nr=40
G92 E0
G1 Z8.15 F6000
M572 D0 S0.1459
G1 X200.0 Y150.2 E0.0133 F900
G1 X175.0 Y150.2 E0.8448 F6000
G1 X150.0 Y150.2 E1.6763 F900
G1 X125.0 Y150.2 E2.5078 F6000
G1 X100.0 Y150.2 E3.3393 F900
G1 X100.0 Y149.8 E3.3526 F900
G1 X125.0 Y149.8 E4.1841 F6000
G1 X150.0 Y149.8 E5.0156 F900
G1 X175.0 Y149.8 E5.8471 F6000
G1 X200.0 Y149.8 E6.6786 F900

; -> layer nr=41
G92 E0
G1 Z8.35 F6000
M572 D0 S0.15
G1 X200.0 Y150.2 E0.0133 F900
G1 X175.0 Y150.2 E0.8448 F6000
G1 X150.0 Y150.2 E1.6763 F900
G1 X125.0 Y150.2 E2.5078 F6000
G1 X100.0 Y150.2 E3.3393 F900
G1 X100.0 Y149.8 E3.3526 F900
G1 X125.0 Y149.8 E4.1841 F6000
G1 X150.0 Y149.8 E5.0156 F900
G1 X175.0 Y149.8 E5.8471 F6000
G1 X200.0 Y149.8 E6.6786 F900

; -> layer nr=42
G92 E0
G1 Z8.55 F6000
M572 D0 S0.1541
G1 X200.0 Y150.2 E0.0133 F900
G1 X175.0 Y150.2 E0.8448 F6000
G1 X150.0 Y150.2 E1.6763 F900
G1 X125.0 Y150.2 E2.5078 F6000
G1 X100.0 Y150.2 E3.3393 F900
G1 X100.0 Y149.8 E3.3526 F900
G1 X125.0 Y149.8 E4.1841 F6000
G1 X150.0 Y149.8 E5.0156 F900
G1 X175.0 Y149.8 E5.8471 F6000
G1 X200.0 Y149.8 E6.6786 F900

; -> layer nr=43
G92 E0
G1 Z8.75 F6000
M572 D0 S0.1581
G1 X200.0 Y150.2 E0.0133 F900
G1 X175.0 Y150.2 E0.8448 F6000
G1 X150.0 Y150.2 E1.6763 F900
G1 X125.0 Y150.2 E2.5078 F6000
G1 X100.0 Y150.2 E3.3393 F900
G1 X100.0 Y149.8 E3.3526 F900
G1 X125.0 Y149.8 E4.1841 F6000
G1 X150.0 Y149.8 E5.0156 F900
G1 X175.0 Y149.8 E5.8471 F6000
G1 X200.0 Y149.8 E6.6786 F900

; -> layer nr=44
G92 E0
G1 Z8.95 F6000
M572 D0 S0.1622
G1 X200.0 Y150.2 E0.0133 F900
G1 X175.0 Y150.2 E0.8448 F6000
G1 X150.0 Y150.2 E1.6763 F900
G1 X125.0 Y150.2 E2.5078 F6000
G1 X100.0 Y150.2 E3.3393 F900
G1 X100.0 Y149.8 E3.3526 F900
G1 X125.0 Y149.8 E4.1841 F6000
G1 X150.0 Y149.8 E5.0156 F900
G1 X175.0 Y149.8 E5.8471 F6000
G1 X200.0 Y149.8 E6.6786 F900

; -> layer nr=45
G92 E0
G1 Z9.15 F6000
M572 D0 S0.1662
G1 X200.0 Y150.2 E0.0133 F900
G1 X175.0 Y150.2 E0.8448 F6000
G1 X150.0 Y150.2 E1.6763 F900
G1 X125.0 Y150.2 E2.5078 F6000
G1 X100.0 Y150.2 E3.3393 F900
G1 X100.0 Y149.8 E3.3526 F900
G1 X125.0 Y149.8 E4.1841 F6000
G1 X150.0 Y149.8 E5.0156 F900
G1 X175.0 Y149.8 E5.8471 F6000
G1 X200.0 Y149.8 E6.6786 F900

; -> layer nr=46
G92 E0
G1 Z9.35 F6000
M572 D0 S0.1703
G1 X200.0 Y150.2 E0.0133 F900
G1 X175.0 Y150.2 E0.8448 F6000
G1 X150.0 Y150.2 E1.6763 F900
G1 X125.0 Y150.2 E2.5078 F6000
G1 X100.0 Y150.2 E3.3393 F900
G1 X100.0 Y149.8 E3.3526 F900
G1 X125.0 Y149.8 E4.1841 F6000
G1 X150.0 Y149.8 E5.0156 F900
G1 X175.0 Y149.8 E5.8471 F6000
G1 X200.0 Y149.8 E6.6786 F900

; -> layer nr=47
G92 E0
G1 Z9.55 F6000
M572 D0 S0.1743
G1 X200.0 Y150.2 E0.0133 F900
G1 X175.0 Y150.2 E0.8448 F6000
G1 X150.0 Y150.2 E1.6763 F900
G1 X125.0 Y150.2 E2.5078 F6000
G1 X100.0 Y150.2 E3.3393 F900
G1 X100.0 Y149.8 E3.3526 F900
G1 X125.0 Y149.8 E4.1841 F6000
G1 X150.0 Y149.8 E5.0156 F900
G1 X175.0 Y149.8 E5.8471 F6000
G1 X200.0 Y149.8 E6.6786 F900

; -> layer nr=48
G92 E0
G1 Z9.75 F6000
M572 D0 S0.1784
G1 X200.0 Y150.2 E0.0133 F900
G1 X175.0 Y150.2 E0.8448 F6000
G1 X150.0 Y150.2 E1.6763 F900
G1 X125.0 Y150.2 E2.5078 F6000
G1 X100.0 Y150.2 E3.3393 F900
G1 X100.0 Y149.8 E3.3526 F900
G1 X125.0 Y149.8 E4.1841 F6000
G1 X150.0 Y149.8 E5.0156 F900
G1 X175.0 Y149.8 E5.8471 F6000
G1 X200.0 Y149.8 E6.6786 F900

; -> layer nr=49
G92 E0
G1 Z9.95 F6000
M572 D0 S0.1824
G1 X200.0 Y150.2 E0.0133 F900
G1 X175.0 Y150.2 E0.8448 F6000
G1 X150.0 Y150.2 E1.6763 F900
G1 X125.0 Y150.2 E2.5078 F6000
G1 X100.0 Y150.2 E3.3393 F900
G1 X100.0 Y149.8 E3.3526 F900
G1 X125.0 Y149.8 E4.1841 F6000
G1 X150.0 Y149.8 E5.0156 F900
G1 X175.0 Y149.8 E5.8471 F6000
G1 X200.0 Y149.8 E6.6786 F900

; -> layer nr=50
G92 E0
G1 Z10.15 F6000
M572 D0 S0.1865
G1 X200.0 Y150.2 E0.0133 F900
G1 X175.0 Y150.2 E0.8448 F6000
G1 X150.0 Y150.2 E1.6763 F900
G1 X125.0 Y150.2 E2.5078 F6000
G1 X100.0 Y150.2 E3.3393 F900
G1 X100.0 Y149.8 E3.3526 F900
G1 X125.0 Y149.8 E4.1841 F6000
G1 X150.0 Y149.8 E5.0156 F900
G1 X175.0 Y149.8 E5.8471 F6000
G1 X200.0 Y149.8 E6.6786 F900

; -> layer nr=51
G92 E0
G1 Z10.35 F6000
M572 D0 S0.1905
G1 X200.0 Y150.2 E0.0133 F900
G1 X175.0 Y150.2 E0.8448 F6000
G1 X150.0 Y150.2 E1.6763 F900
G1 X125.0 Y150.2 E2.5078 F6000
G1 X100.0 Y150.2 E3.3393 F900
G1 X100.0 Y149.8 E3.3526 F900
G1 X125.0 Y149.8 E4.1841 F6000
G1 X150.0 Y149.8 E5.0156 F900
G1 X175.0 Y149.8 E5.8471 F6000
G1 X200.0 Y149.8 E6.6786 F900

; -> layer nr=52
G92 E0
G1 Z10.55 F6000
M572 D0 S0.1946
G1 X200.0 Y150.2 E0.0133 F900
G1 X175.0 Y150.2 E0.8448 F6000
G1 X150.0 Y150.2 E1.6763 F900
G1 X125.0 Y150.2 E2.5078 F6000
G1 X100.0 Y150.2 E3.3393 F900
G1 X100.0 Y149.8 E3.3526 F900
G1 X125.0 Y149.8 E4.1841 F6000
G1 X150.0 Y149.8 E5.0156 F900
G1 X175.0 Y149.8 E5.8471 F6000
G1 X200.0 Y149.8 E6.6786 F900

; -> layer nr=53
G92 E0
G1 Z10.75 F6000
M572 D0 S0.1986
G1 X200.0 Y150.2 E0.0133 F900
G1 X175.0 Y150.2 E0.8448 F6000
G1 X150.0 Y150.2 E1.6763 F900
G1 X125.0 Y150.2 E2.5078 F6000
G1 X100.0 Y150.2 E3.3393 F900
G1 X100.0 Y149.8 E3.3526 F900
G1 X125.0 Y149.8 E4.1841 F6000
G1 X150.0 Y149.8 E5.0156 F900
G1 X175.0 Y149.8 E5.8471 F6000
G1 X200.0 Y149.8 E6.6786 F900

; -> layer nr=54
G92 E0
G1 Z10.95 F6000
M572 D0 S0.2027
G1 X200.0 Y150.2 E0.0133 F900
G1 X175.0 Y150.2 E0.8448 F6000
G1 X150.0 Y150.2 E1.6763 F900
G1 X125.0 Y150.2 E2.5078 F6000
G1 X100.0 Y150.2 E3.3393 F900
G1 X100.0 Y149.8 E3.3526 F900
G1 X125.0 Y149.8 E4.1841 F6000
G1 X150.0 Y149.8 E5.0156 F900
G1 X175.0 Y149.8 E5.8471 F6000
G1 X200.0 Y149.8 E6.6786 F900

; -> layer nr=55
G92 E0
G1 Z11.15 F6000
M572 D0 S0.2068
G1 X200.0 Y150.2 E0.0133 F900
G1 X175.0 Y150.2 E0.8448 F6000
G1 X150.0 Y150.2 E1.6763 F900
G1 X125.0 Y150.2 E2.5078 F6000
G1 X100.0 Y150.2 E3.3393 F900
G1 X100.0 Y149.8 E3.3526 F900
G1 X125.0 Y149.8 E4.1841 F6000
G1 X150.0 Y149.8 E5.0156 F900
G1 X175.0 Y149.8 E5.8471 F6000
G1 X200.0 Y149.8 E6.6786 F900

; -> layer nr=56
G92 E0
G1 Z11.35 F6000
M572 D0 S0.2108
G1 X200.0 Y150.2 E0.0133 F900
G1 X175.0 Y150.2 E0.8448 F6000
G1 X150.0 Y150.2 E1.6763 F900
G1 X125.0 Y150.2 E2.5078 F6000
G1 X100.0 Y150.2 E3.3393 F900
G1 X100.0 Y149.8 E3.3526 F900
G1 X125.0 Y149.8 E4.1841 F6000
G1 X150.0 Y149.8 E5.0156 F900
G1 X175.0 Y149.8 E5.8471 F6000
G1 X200.0 Y149.8 E6.6786 F900

; -> layer nr=57
G92 E0
G1 Z11.55 F6000
M572 D0 S0.2149
G1 X200.0 Y150.2 E0.0133 F900
G1 X175.0 Y150.2 E0.8448 F6000
G1 X150.0 Y150.2 E1.6763 F900
G1 X125.0 Y150.2 E2.5078 F6000
G1 X100.0 Y150.2 E3.3393 F900
G1 X100.0 Y149.8 E3.3526 F900
G1 X125.0 Y149.8 E4.1841 F6000
G1 X150.0 Y149.8 E5.0156 F900
G1 X175.0 Y149.8 E5.8471 F6000
G1 X200.0 Y149.8 E6.6786 F900

; -> layer nr=58
G92 E0
G1 Z11.75 F6000
M572 D0 S0.2189
G1 X200.0 Y150.2 E0.0133 F900
G1 X175.0 Y150.2 E0.8448 F6000
G1 X150.0 Y150.2 E1.6763 F900
G1 X125.0 Y150.2 E2.5078 F6000
G1 X100.0 Y150.2 E3.3393 F900
G1 X100.0 Y149.8 E3.3526 F900
G1 X125.0 Y149.8 E4.1841 F6000
G1 X150.0 Y149.8 E5.0156 F900
G1 X175.0 Y149.8 E5.8471 F6000
G1 X200.0 Y149.8 E6.6786 F900

; -> layer nr=59
G92 E0
G1 Z11.95 F6000
M572 D0 S0.223
G1 X200.0 Y150.2 E0.0133 F900
G1 X175.0 Y150.2 E0.8448 F6000
G1 X150.0 Y150.2 E1.6763 F900
G1 X125.0 Y150.2 E2.5078 F6000
G1 X100.0 Y150.2 E3.3393 F900
G1 X100.0 Y149.8 E3.3526 F900
G1 X125.0 Y149.8 E4.1841 F6000
G1 X150.0 Y149.8 E5.0156 F900
G1 X175.0 Y149.8 E5.8471 F6000
G1 X200.0 Y149.8 E6.6786 F900

; -> layer nr=60
G92 E0
G1 Z12.15 F6000
M572 D0 S0.227
G1 X200.0 Y150.2 E0.0133 F900
G1 X175.0 Y150.2 E0.8448 F6000
G1 X150.0 Y150.2 E1.6763 F900
G1 X125.0 Y150.2 E2.5078 F6000
G1 X100.0 Y150.2 E3.3393 F900
G1 X100.0 Y149.8 E3.3526 F900
G1 X125.0 Y149.8 E4.1841 F6000
G1 X150.0 Y149.8 E5.0156 F900
G1 X175.0 Y149.8 E5.8471 F6000
G1 X200.0 Y149.8 E6.6786 F900

; -> layer nr=61
G92 E0
G1 Z12.35 F6000
M572 D0 S0.2311
G1 X200.0 Y150.2 E0.0133 F900
G1 X175.0 Y150.2 E0.8448 F6000
G1 X150.0 Y150.2 E1.6763 F900
G1 X125.0 Y150.2 E2.5078 F6000
G1 X100.0 Y150.2 E3.3393 F900
G1 X100.0 Y149.8 E3.3526 F900
G1 X125.0 Y149.8 E4.1841 F6000
G1 X150.0 Y149.8 E5.0156 F900
G1 X175.0 Y149.8 E5.8471 F6000
G1 X200.0 Y149.8 E6.6786 F900

; -> layer nr=62
G92 E0
G1 Z12.55 F6000
M572 D0 S0.2351
G1 X200.0 Y150.2 E0.0133 F900
G1 X175.0 Y150.2 E0.8448 F6000
G1 X150.0 Y150.2 E1.6763 F900
G1 X125.0 Y150.2 E2.5078 F6000
G1 X100.0 Y150.2 E3.3393 F900
G1 X100.0 Y149.8 E3.3526 F900
G1 X125.0 Y149.8 E4.1841 F6000
G1 X150.0 Y149.8 E5.0156 F900
G1 X175.0 Y149.8 E5.8471 F6000
G1 X200.0 Y149.8 E6.6786 F900

; -> layer nr=63
G92 E0
G1 Z12.75 F6000
M572 D0 S0.2392
G1 X200.0 Y150.2 E0.0133 F900
G1 X175.0 Y150.2 E0.8448 F6000
G1 X150.0 Y150.2 E1.6763 F900
G1 X125.0 Y150.2 E2.5078 F6000
G1 X100.0 Y150.2 E3.3393 F900
G1 X100.0 Y149.8 E3.3526 F900
G1 X125.0 Y149.8 E4.1841 F6000
G1 X150.0 Y149.8 E5.0156 F900
G1 X175.0 Y149.8 E5.8471 F6000
G1 X200.0 Y149.8 E6.6786 F900

; -> layer nr=64
G92 E0
G1 Z12.95 F6000
M572 D0 S0.2432
G1 X200.0 Y150.2 E0.0133 F900
G1 X175.0 Y150.2 E0.8448 F6000
G1 X150.0 Y150.2 E1.6763 F900
G1 X125.0 Y150.2 E2.5078 F6000
G1 X100.0 Y150.2 E3.3393 F900
G1 X100.0 Y149.8 E3.3526 F900
G1 X125.0 Y149.8 E4.1841 F6000
G1 X150.0 Y149.8 E5.0156 F900
G1 X175.0 Y149.8 E5.8471 F6000
G1 X200.0 Y149.8 E6.6786 F900

; -> layer nr=65
G92 E0
G1 Z13.15 F6000
M572 D0 S0.2473
G1 X200.0 Y150.2 E0.0133 F900
G1 X175.0 Y150.2 E0.8448 F6000
G1 X150.0 Y150.2 E1.6763 F900
G1 X125.0 Y150.2 E2.5078 F6000
G1 X100.0 Y150.2 E3.3393 F900
G1 X100.0 Y149.8 E3.3526 F900
G1 X125.0 Y149.8 E4.1841 F6000
G1 X150.0 Y149.8 E5.0156 F900
G1 X175.0 Y149.8 E5.8471 F6000
G1 X200.0 Y149.8 E6.6786 F900

; -> layer nr=66
G92 E0
G1 Z13.35 F6000
M572 D0 S0.2514
G1 X200.0 Y150.2 E0.0133 F900
G1 X175.0 Y150.2 E0.8448 F6000
G1 X150.0 Y150.2 E1.6763 F900
G1 X125.0 Y150.2 E2.5078 F6000
G1 X100.0 Y150.2 E3.3393 F900
G1 X100.0 Y149.8 E3.3526 F900
G1 X125.0 Y149.8 E4.1841 F6000
G1 X150.0 Y149.8 E5.0156 F900
G1 X175.0 Y149.8 E5.8471 F6000
G1 X200.0 Y149.8 E6.6786 F900

; -> layer nr=67
G92 E0
G1 Z13.55 F6000
M572 D0 S0.2554
G1 X200.0 Y150.2 E0.0133 F900
G1 X175.0 Y150.2 E0.8448 F6000
G1 X150.0 Y150.2 E1.6763 F900
G1 X125.0 Y150.2 E2.5078 F6000
G1 X100.0 Y150.2 E3.3393 F900
G1 X100.0 Y149.8 E3.3526 F900
G1 X125.0 Y149.8 E4.1841 F6000
G1 X150.0 Y149.8 E5.0156 F900
G1 X175.0 Y149.8 E5.8471 F6000
G1 X200.0 Y149.8 E6.6786 F900

; -> layer nr=68
G92 E0
G1 Z13.75 F6000
M572 D0 S0.2595
G1 X200.0 Y150.2 E0.0133 F900
G1 X175.0 Y150.2 E0.8448 F6000
G1 X150.0 Y150.2 E1.6763 F900
G1 X125.0 Y150.2 E2.5078 F6000
G1 X100.0 Y150.2 E3.3393 F900
G1 X100.0 Y149.8 E3.3526 F900
G1 X125.0 Y149.8 E4.1841 F6000
G1 X150.0 Y149.8 E5.0156 F900
G1 X175.0 Y149.8 E5.8471 F6000
G1 X200.0 Y149.8 E6.6786 F900

; -> layer nr=69
G92 E0
G1 Z13.95 F6000
M572 D0 S0.2635
G1 X200.0 Y150.2 E0.0133 F900
G1 X175.0 Y150.2 E0.8448 F6000
G1 X150.0 Y150.2 E1.6763 F900
G1 X125.0 Y150.2 E2.5078 F6000
G1 X100.0 Y150.2 E3.3393 F900
G1 X100.0 Y149.8 E3.3526 F900
G1 X125.0 Y149.8 E4.1841 F6000
G1 X150.0 Y149.8 E5.0156 F900
G1 X175.0 Y149.8 E5.8471 F6000
G1 X200.0 Y149.8 E6.6786 F900

; -> layer nr=70
G92 E0
G1 Z14.15 F6000
M572 D0 S0.2676
G1 X200.0 Y150.2 E0.0133 F900
G1 X175.0 Y150.2 E0.8448 F6000
G1 X150.0 Y150.2 E1.6763 F900
G1 X125.0 Y150.2 E2.5078 F6000
G1 X100.0 Y150.2 E3.3393 F900
G1 X100.0 Y149.8 E3.3526 F900
G1 X125.0 Y149.8 E4.1841 F6000
G1 X150.0 Y149.8 E5.0156 F900
G1 X175.0 Y149.8 E5.8471 F6000
G1 X200.0 Y149.8 E6.6786 F900

; -> layer nr=71
G92 E0
G1 Z14.35 F6000
M572 D0 S0.2716
G1 X200.0 Y150.2 E0.0133 F900
G1 X175.0 Y150.2 E0.8448 F6000
G1 X150.0 Y150.2 E1.6763 F900
G1 X125.0 Y150.2 E2.5078 F6000
G1 X100.0 Y150.2 E3.3393 F900
G1 X100.0 Y149.8 E3.3526 F900
G1 X125.0 Y149.8 E4.1841 F6000
G1 X150.0 Y149.8 E5.0156 F900
G1 X175.0 Y149.8 E5.8471 F6000
G1 X200.0 Y149.8 E6.6786 F900

; -> layer nr=72
G92 E0
G1 Z14.55 F6000
M572 D0 S0.2757
G1 X200.0 Y150.2 E0.0133 F900
G1 X175.0 Y150.2 E0.8448 F6000
G1 X150.0 Y150.2 E1.6763 F900
G1 X125.0 Y150.2 E2.5078 F6000
G1 X100.0 Y150.2 E3.3393 F900
G1 X100.0 Y149.8 E3.3526 F900
G1 X125.0 Y149.8 E4.1841 F6000
G1 X150.0 Y149.8 E5.0156 F900
G1 X175.0 Y149.8 E5.8471 F6000
G1 X200.0 Y149.8 E6.6786 F900

; -> layer nr=73
G92 E0
G1 Z14.75 F6000
M572 D0 S0.2797
G1 X200.0 Y150.2 E0.0133 F900
G1 X175.0 Y150.2 E0.8448 F6000
G1 X150.0 Y150.2 E1.6763 F900
G1 X125.0 Y150.2 E2.5078 F6000
G1 X100.0 Y150.2 E3.3393 F900
G1 X100.0 Y149.8 E3.3526 F900
G1 X125.0 Y149.8 E4.1841 F6000
G1 X150.0 Y149.8 E5.0156 F900
G1 X175.0 Y149.8 E5.8471 F6000
G1 X200.0 Y149.8 E6.6786 F900

; -> layer nr=74
G92 E0
G1 Z14.95 F6000
M572 D0 S0.2838
G1 X200.0 Y150.2 E0.0133 F900
G1 X175.0 Y150.2 E0.8448 F6000
G1 X150.0 Y150.2 E1.6763 F900
G1 X125.0 Y150.2 E2.5078 F6000
G1 X100.0 Y150.2 E3.3393 F900
G1 X100.0 Y149.8 E3.3526 F900
G1 X125.0 Y149.8 E4.1841 F6000
G1 X150.0 Y149.8 E5.0156 F900
G1 X175.0 Y149.8 E5.8471 F6000
G1 X200.0 Y149.8 E6.6786 F900

; -> layer nr=75
G92 E0
G1 Z15.15 F6000
M572 D0 S0.2878
G1 X200.0 Y150.2 E0.0133 F900
G1 X175.0 Y150.2 E0.8448 F6000
G1 X150.0 Y150.2 E1.6763 F900
G1 X125.0 Y150.2 E2.5078 F6000
G1 X100.0 Y150.2 E3.3393 F900
G1 X100.0 Y149.8 E3.3526 F900
G1 X125.0 Y149.8 E4.1841 F6000
G1 X150.0 Y149.8 E5.0156 F900
G1 X175.0 Y149.8 E5.8471 F6000
G1 X200.0 Y149.8 E6.6786 F900

; -> layer nr=76
G92 E0
G1 Z15.35 F6000
M572 D0 S0.2919
G1 X200.0 Y150.2 E0.0133 F900
G1 X175.0 Y150.2 E0.8448 F6000
G1 X150.0 Y150.2 E1.6763 F900
G1 X125.0 Y150.2 E2.5078 F6000
G1 X100.0 Y150.2 E3.3393 F900
G1 X100.0 Y149.8 E3.3526 F900
G1 X125.0 Y149.8 E4.1841 F6000
G1 X150.0 Y149.8 E5.0156 F900
G1 X175.0 Y149.8 E5.8471 F6000
G1 X200.0 Y149.8 E6.6786 F900

; -> layer nr=77
G92 E0
G1 Z15.55 F6000
M572 D0 S0.2959
G1 X200.0 Y150.2 E0.0133 F900
G1 X175.0 Y150.2 E0.8448 F6000
G1 X150.0 Y150.2 E1.6763 F900
G1 X125.0 Y150.2 E2.5078 F6000
G1 X100.0 Y150.2 E3.3393 F900
G1 X100.0 Y149.8 E3.3526 F900
G1 X125.0 Y149.8 E4.1841 F6000
G1 X150.0 Y149.8 E5.0156 F900
G1 X175.0 Y149.8 E5.8471 F6000
G1 X200.0 Y149.8 E6.6786 F900

; -> layer nr=78
G92 E0
G1 Z15.75 F6000
M572 D0 S0.3
G1 X200.0 Y150.2 E0.0133 F900
G1 X175.0 Y150.2 E0.8448 F6000
G1 X150.0 Y150.2 E1.6763 F900
G1 X125.0 Y150.2 E2.5078 F6000
G1 X100.0 Y150.2 E3.3393 F900
G1 X100.0 Y149.8 E3.3526 F900
G1 X125.0 Y149.8 E4.1841 F6000
G1 X150.0 Y149.8 E5.0156 F900
G1 X175.0 Y149.8 E5.8471 F6000
G1 X200.0 Y149.8 E6.6786 F900

; --------------------
;     gcode footer    
; --------------------
M140 S0 ; turn off bed 
G10 P0 R0 S0 ; set extruder temp 
T-1 ; omitted if tool_index = -1 
G91 G1 Z5 F3000 ; move extruder up 5 
G1 X0 Y0 F3000 
